X:1
T:Quare Bungle Rye
M:3/4
L:1/4
K:F
 C/2| F F F| D C C| F F A| c2 c| d B d| c A F| B G E| C2 C/2C/2| F F F|\
 D/2- C3/2 C| F F A| c2 c/2c/2| d B d| c A F| B A G| A F D| C3| c3/2 d/2c/2 A/2|\
 B G E| C D E| F2- F/2|
